src/shared/assets/Logo.svg

<?xml version="1.0" encoding="UTF-8"?>
<!DOCTYPE svg  PUBLIC '-//W3C//DTD SVG 1.1//EN'  'http://www.w3.org/Graphics/SVG/1.1/DTD/svg11.dtd'>
<svg clip-rule="evenodd" fill-rule="evenodd" image-rendering="optimizeQuality" shape-rendering="geometricPrecision" text-rendering="geometricPrecision" version="1.1" viewBox="0 0 599 625" xmlns="http://www.w3.org/2000/svg">
<path d="m-0.5-0.5h66c41.965 42.465 84.132 84.799 126.5 127 0.464 0.594 0.631 1.261 0.5 2-18.617 10.283-33.283 24.617-44 43-49.333-50-99-99.667-149-149v-23z" fill="#b100fe"/>
<path d="m65.5-0.5h76c36.333 36.667 72.667 73.333 109 110-20.252 3.562-39.586 9.896-58 19 0.131-0.739-0.036-1.406-0.5-2-42.368-42.201-84.535-84.535-126.5-127z" fill="#b800fe"/>
<path d="m141.5-0.5h76c34.132 34.632 68.465 69.132 103 103.5-4.188 0.176-8.188 0.676-12 1.5-19.495-0.065-38.828 1.602-58 5-36.333-36.667-72.667-73.333-109-110z" fill="#be00fe"/>
<path d="m217.5-0.5h66c36.465 36.965 73.132 73.799 110 110.5 1.558 0.21 2.891 0.71 4 1.5-29.447-5.026-59.113-7.36-89-7 3.812-0.824 7.812-1.324 12-1.5-34.535-34.368-68.868-68.868-103-103.5z" fill="#c300fe"/>
<path d="m283.5-0.5h86c76 76.667 152.33 153 229 229v86c-49.667-49.333-99.333-98.667-149-148 0.329-14.177-4e-3 -28.177-1-42-16.802-5.117-33.802-9.45-51-13-1.109-0.79-2.442-1.29-4-1.5-36.868-36.701-73.535-73.535-110-110.5z" fill="#ca00fe"/>
<path d="m369.5-0.5h75c51 51.667 102.33 103 154 154v75c-76.667-76-153-152.33-229-229z" fill="#d100ff"/>
<path d="m444.5-0.5h76c25.667 26.333 51.667 52.333 78 78v76c-51.667-51-103-102.33-154-154z" fill="#d700ff"/>
<path d="m520.5-0.5h78v78c-26.333-25.667-52.333-51.667-78-78z" fill="#dc00ff"/>
<path d="m-0.5 22.5c50 49.333 99.667 99 149 149-10.254 20.746-14.587 42.746-13 66-0.802-1.452-1.302-3.118-1.5-5-44.701-44.868-89.535-89.535-134.5-134v-76z" fill="#ab00fe"/>
<path d="m-0.5 98.5c44.965 44.465 89.799 89.132 134.5 134 0.198 1.882 0.698 3.548 1.5 5 0.736 63.397 32.403 99.731 95 109 6.622 1.161 13.289 1.828 20 2 33.333 33.667 66.667 67.333 100 101-13.709 5.701-28.042 8.868-43 9.5-13.173 0.827-26.173 0.66-39-0.5 5.011 0.166 10.011-1e-3 15-0.5-94.535-94.701-189.2-189.2-284-283.5v-76z" fill="#a400fe"/>
<path d="m308.5 104.5c29.887-0.36 59.553 1.974 89 7 17.198 3.55 34.198 7.883 51 13 0.331 23.173-2e-3 46.173-1 69-16.017-5.672-32.351-10.339-49-14-28.019-5.742-56.352-8.409-85-8-17.94-0.766-35.607 1.067-53 5.5-4.964 1.371-9.631 3.204-14 5.5-30.196 14.081-40.696 37.414-31.5 70 5.167 13.164 14.667 21.331 28.5 24.5 4.934 1.16 9.934 1.66 15 1.5 33.851 0.581 67.851 1.414 102 2.5 70.716 8.893 105.05 49.06 103 120.5-0.448 23.809-6.782 45.809-19 66-10.441 14.774-23.441 26.774-39 36-19.882 9.185-40.548 15.518-62 19-22.571 2.531-45.238 3.531-68 3-31.702-0.637-63.036-4.303-94-11-10.515-2.37-20.848-5.37-31-9-0.997-7.303-1.331-14.637-1-22v-47c15.661 5.553 31.661 9.887 48 13 8.753 2.384 17.753 4.218 27 5.5 14.59 2.159 29.256 3.326 44 3.5 12.827 1.16 25.827 1.327 39 0.5 14.958-0.632 29.291-3.799 43-9.5 20.024-7.528 31.858-21.861 35.5-43 3.865-35.466-11.968-54.633-47.5-57.5-29.331-0.5-58.665-0.667-88-0.5-6.711-0.172-13.378-0.839-20-2-62.597-9.269-94.264-45.603-95-109-1.587-23.254 2.746-45.254 13-66 10.717-18.383 25.383-32.717 44-43 18.414-9.104 37.748-15.438 58-19 19.172-3.398 38.505-5.065 58-5z" fill="#1e1e1e"/>
<path d="m448.5 124.5c0.996 13.823 1.329 27.823 1 42 0.332 9.357-2e-3 18.69-1 28-0.607-0.124-0.94-0.457-1-1 0.998-22.827 1.331-45.827 1-69z" fill="#4a1658"/>
<path d="m449.5 166.5c49.667 49.333 99.333 98.667 149 148v66c-67.382-66.382-134.05-133.38-200-201 16.649 3.661 32.983 8.328 49 14 0.06 0.543 0.393 0.876 1 1 0.998-9.31 1.332-18.643 1-28z" fill="#c400fe"/>
<path d="m313.5 171.5c94.667 95.333 189.67 190.33 285 285v76c-44.632-44.132-89.132-88.465-133.5-133-0.278 0.916-0.778 1.582-1.5 2 2.049-71.44-32.284-111.61-103-120.5-34.149-1.086-68.149-1.919-102-2.5 28.335 0.167 56.669 0 85-0.5-31.917-32.418-64.251-64.252-97-95.5 4.369-2.296 9.036-4.129 14-5.5 17.393-4.433 35.06-6.266 53-5.5z" fill="#b700fd"/>
<path d="m313.5 171.5c28.648-0.409 56.981 2.258 85 8 65.951 67.618 132.62 134.62 200 201v76c-95.333-94.667-190.33-189.67-285-285z" fill="#be00fe"/>
<path d="m-0.5 174.5c94.799 94.299 189.46 188.8 284 283.5-4.989 0.499-9.989 0.666-15 0.5-14.744-0.174-29.41-1.341-44-3.5-9.247-1.282-18.247-3.116-27-5.5-64.998-66.667-131-133-198-199v-76z" fill="#9f00fe"/>
<path d="m246.5 182.5c32.749 31.248 65.083 63.082 97 95.5-28.331 0.5-56.665 0.667-85 0.5-5.066 0.16-10.066-0.34-15-1.5-13.833-3.169-23.333-11.336-28.5-24.5-9.196-32.586 1.304-55.919 31.5-70z" fill="#b100fe"/>
<path d="m-0.5 250.5c67.002 66 133 132.33 198 199-16.339-3.113-32.339-7.447-48-13v47c-50-49.667-100-99.333-150-149v-84z" fill="#9900fe"/>
<path d="m-0.5 334.5c50 49.667 100 99.333 150 149-0.331 7.363 3e-3 14.697 1 22 10.152 3.63 20.485 6.63 31 9-0.131 0.739 0.036 1.406 0.5 2 36.035 35.868 71.868 71.868 107.5 108h-68c-73.667-74.333-147.67-148.33-222-222v-68z" fill="#9200fe"/>
<path d="m250.5 348.5c29.335-0.167 58.669 0 88 0.5 35.532 2.867 51.365 22.034 47.5 57.5-3.642 21.139-15.476 35.472-35.5 43-33.333-33.667-66.667-67.333-100-101z" fill="#ab00fe"/>
<path d="m598.5 532.5v88c-51.333-51-102.67-102-154-153 12.218-20.191 18.552-42.191 19-66 0.722-0.418 1.222-1.084 1.5-2 44.368 44.535 88.868 88.868 133.5 133z" fill="#b100fe"/>
<path d="m-0.5 402.5c74.333 73.667 148.33 147.67 222 222h-76c-48.333-49-97-97.667-146-146v-76z" fill="#8c00ff"/>
<path d="m444.5 467.5c51.333 51 102.67 102 154 153v4h-73c-40-40.333-80-80.667-120-121 15.559-9.226 28.559-21.226 39-36z" fill="#ab00fe"/>
<path d="m-0.5 478.5c49 48.333 97.667 97 146 146h-146v-146z" fill="#8500ff"/>
<path d="m405.5 503.5c40 40.333 80 80.667 120 121h-76c-33.465-33.965-67.132-67.799-101-101.5-1.634-0.494-3.301-0.66-5-0.5 21.452-3.482 42.118-9.815 62-19z" fill="#a500fe"/>
<path d="m181.5 514.5c30.964 6.697 62.298 10.363 94 11 32.667 33 65.333 66 98 99h-84c-35.632-36.132-71.465-72.132-107.5-108-0.464-0.594-0.631-1.261-0.5-2z" fill="#9800fe"/>
<path d="m343.5 522.5c1.699-0.16 3.366 6e-3 5 0.5 33.868 33.701 67.535 67.535 101 101.5h-76c-32.667-33-65.333-66-98-99 22.762 0.531 45.429-0.469 68-3z" fill="#9f00fe"/>
</svg>

<?xml version="1.0" encoding="UTF-8"?>
<!DOCTYPE svg PUBLIC "-//W3C//DTD SVG 1.1//EN" "http://www.w3.org/Graphics/SVG/1.1/DTD/svg11.dtd">
<svg xmlns="http://www.w3.org/2000/svg" version="1.1" width="599px" height="625px" style="shape-rendering:geometricPrecision; text-rendering:geometricPrecision; image-rendering:optimizeQuality; fill-rule:evenodd; clip-rule:evenodd" xmlns:xlink="http://www.w3.org/1999/xlink">
<g><path style="opacity:1" fill="#b100fe" d="M -0.5,-0.5 C 21.5,-0.5 43.5,-0.5 65.5,-0.5C 107.465,41.9654 149.632,84.2987 192,126.5C 192.464,127.094 192.631,127.761 192.5,128.5C 173.883,138.783 159.217,153.117 148.5,171.5C 99.1667,121.5 49.5,71.8333 -0.5,22.5C -0.5,14.8333 -0.5,7.16667 -0.5,-0.5 Z"/></g>
<g><path style="opacity:1" fill="#b800fe" d="M 65.5,-0.5 C 90.8333,-0.5 116.167,-0.5 141.5,-0.5C 177.833,36.1667 214.167,72.8333 250.5,109.5C 230.248,113.062 210.914,119.396 192.5,128.5C 192.631,127.761 192.464,127.094 192,126.5C 149.632,84.2987 107.465,41.9654 65.5,-0.5 Z"/></g>
<g><path style="opacity:1" fill="#be00fe" d="M 141.5,-0.5 C 166.833,-0.5 192.167,-0.5 217.5,-0.5C 251.632,34.132 285.965,68.632 320.5,103C 316.312,103.176 312.312,103.676 308.5,104.5C 289.005,104.435 269.672,106.102 250.5,109.5C 214.167,72.8333 177.833,36.1667 141.5,-0.5 Z"/></g>
<g><path style="opacity:1" fill="#c300fe" d="M 217.5,-0.5 C 239.5,-0.5 261.5,-0.5 283.5,-0.5C 319.965,36.4654 356.632,73.2987 393.5,110C 395.058,110.21 396.391,110.71 397.5,111.5C 368.053,106.474 338.387,104.14 308.5,104.5C 312.312,103.676 316.312,103.176 320.5,103C 285.965,68.632 251.632,34.132 217.5,-0.5 Z"/></g>
<g><path style="opacity:1" fill="#ca00fe" d="M 283.5,-0.5 C 312.167,-0.5 340.833,-0.5 369.5,-0.5C 445.5,76.1667 521.833,152.5 598.5,228.5C 598.5,257.167 598.5,285.833 598.5,314.5C 548.833,265.167 499.167,215.833 449.5,166.5C 449.829,152.323 449.496,138.323 448.5,124.5C 431.698,119.383 414.698,115.05 397.5,111.5C 396.391,110.71 395.058,110.21 393.5,110C 356.632,73.2987 319.965,36.4654 283.5,-0.5 Z"/></g>
<g><path style="opacity:1" fill="#d100ff" d="M 369.5,-0.5 C 394.5,-0.5 419.5,-0.5 444.5,-0.5C 495.5,51.1667 546.833,102.5 598.5,153.5C 598.5,178.5 598.5,203.5 598.5,228.5C 521.833,152.5 445.5,76.1667 369.5,-0.5 Z"/></g>
<g><path style="opacity:1" fill="#d700ff" d="M 444.5,-0.5 C 469.833,-0.5 495.167,-0.5 520.5,-0.5C 546.167,25.8333 572.167,51.8333 598.5,77.5C 598.5,102.833 598.5,128.167 598.5,153.5C 546.833,102.5 495.5,51.1667 444.5,-0.5 Z"/></g>
<g><path style="opacity:1" fill="#dc00ff" d="M 520.5,-0.5 C 546.5,-0.5 572.5,-0.5 598.5,-0.5C 598.5,25.5 598.5,51.5 598.5,77.5C 572.167,51.8333 546.167,25.8333 520.5,-0.5 Z"/></g>
<g><path style="opacity:1" fill="#ab00fe" d="M -0.5,22.5 C 49.5,71.8333 99.1667,121.5 148.5,171.5C 138.246,192.246 133.913,214.246 135.5,237.5C 134.698,236.048 134.198,234.382 134,232.5C 89.2987,187.632 44.4654,142.965 -0.5,98.5C -0.5,73.1667 -0.5,47.8333 -0.5,22.5 Z"/></g>
<g><path style="opacity:1" fill="#a400fe" d="M -0.5,98.5 C 44.4654,142.965 89.2987,187.632 134,232.5C 134.198,234.382 134.698,236.048 135.5,237.5C 136.236,300.897 167.903,337.231 230.5,346.5C 237.122,347.661 243.789,348.328 250.5,348.5C 283.833,382.167 317.167,415.833 350.5,449.5C 336.791,455.201 322.458,458.368 307.5,459C 294.327,459.827 281.327,459.66 268.5,458.5C 273.511,458.666 278.511,458.499 283.5,458C 188.965,363.299 94.2988,268.799 -0.5,174.5C -0.5,149.167 -0.5,123.833 -0.5,98.5 Z"/></g>
<g><path style="opacity:1" fill="#1e1e1e" d="M 308.5,104.5 C 338.387,104.14 368.053,106.474 397.5,111.5C 414.698,115.05 431.698,119.383 448.5,124.5C 448.831,147.673 448.498,170.673 447.5,193.5C 431.483,187.828 415.149,183.161 398.5,179.5C 370.481,173.758 342.148,171.091 313.5,171.5C 295.56,170.734 277.893,172.567 260.5,177C 255.536,178.371 250.869,180.204 246.5,182.5C 216.304,196.581 205.804,219.914 215,252.5C 220.167,265.664 229.667,273.831 243.5,277C 248.434,278.16 253.434,278.66 258.5,278.5C 292.351,279.081 326.351,279.914 360.5,281C 431.216,289.893 465.549,330.06 463.5,401.5C 463.052,425.309 456.718,447.309 444.5,467.5C 434.059,482.274 421.059,494.274 405.5,503.5C 385.618,512.685 364.952,519.018 343.5,522.5C 320.929,525.031 298.262,526.031 275.5,525.5C 243.798,524.863 212.464,521.197 181.5,514.5C 170.985,512.13 160.652,509.13 150.5,505.5C 149.503,498.197 149.169,490.863 149.5,483.5C 149.5,467.833 149.5,452.167 149.5,436.5C 165.161,442.053 181.161,446.387 197.5,449.5C 206.253,451.884 215.253,453.718 224.5,455C 239.09,457.159 253.756,458.326 268.5,458.5C 281.327,459.66 294.327,459.827 307.5,459C 322.458,458.368 336.791,455.201 350.5,449.5C 370.524,441.972 382.358,427.639 386,406.5C 389.865,371.034 374.032,351.867 338.5,349C 309.169,348.5 279.835,348.333 250.5,348.5C 243.789,348.328 237.122,347.661 230.5,346.5C 167.903,337.231 136.236,300.897 135.5,237.5C 133.913,214.246 138.246,192.246 148.5,171.5C 159.217,153.117 173.883,138.783 192.5,128.5C 210.914,119.396 230.248,113.062 250.5,109.5C 269.672,106.102 289.005,104.435 308.5,104.5 Z"/></g>
<g><path style="opacity:1" fill="#4a1658" d="M 448.5,124.5 C 449.496,138.323 449.829,152.323 449.5,166.5C 449.832,175.857 449.498,185.19 448.5,194.5C 447.893,194.376 447.56,194.043 447.5,193.5C 448.498,170.673 448.831,147.673 448.5,124.5 Z"/></g>
<g><path style="opacity:1" fill="#c400fe" d="M 449.5,166.5 C 499.167,215.833 548.833,265.167 598.5,314.5C 598.5,336.5 598.5,358.5 598.5,380.5C 531.118,314.118 464.451,247.118 398.5,179.5C 415.149,183.161 431.483,187.828 447.5,193.5C 447.56,194.043 447.893,194.376 448.5,194.5C 449.498,185.19 449.832,175.857 449.5,166.5 Z"/></g>
<g><path style="opacity:1" fill="#b700fd" d="M 313.5,171.5 C 408.167,266.833 503.167,361.833 598.5,456.5C 598.5,481.833 598.5,507.167 598.5,532.5C 553.868,488.368 509.368,444.035 465,399.5C 464.722,400.416 464.222,401.082 463.5,401.5C 465.549,330.06 431.216,289.893 360.5,281C 326.351,279.914 292.351,279.081 258.5,278.5C 286.835,278.667 315.169,278.5 343.5,278C 311.583,245.582 279.249,213.748 246.5,182.5C 250.869,180.204 255.536,178.371 260.5,177C 277.893,172.567 295.56,170.734 313.5,171.5 Z"/></g>
<g><path style="opacity:1" fill="#be00fe" d="M 313.5,171.5 C 342.148,171.091 370.481,173.758 398.5,179.5C 464.451,247.118 531.118,314.118 598.5,380.5C 598.5,405.833 598.5,431.167 598.5,456.5C 503.167,361.833 408.167,266.833 313.5,171.5 Z"/></g>
<g><path style="opacity:1" fill="#9f00fe" d="M -0.5,174.5 C 94.2988,268.799 188.965,363.299 283.5,458C 278.511,458.499 273.511,458.666 268.5,458.5C 253.756,458.326 239.09,457.159 224.5,455C 215.253,453.718 206.253,451.884 197.5,449.5C 132.502,382.833 66.5017,316.5 -0.5,250.5C -0.5,225.167 -0.5,199.833 -0.5,174.5 Z"/></g>
<g><path style="opacity:1" fill="#b100fe" d="M 246.5,182.5 C 279.249,213.748 311.583,245.582 343.5,278C 315.169,278.5 286.835,278.667 258.5,278.5C 253.434,278.66 248.434,278.16 243.5,277C 229.667,273.831 220.167,265.664 215,252.5C 205.804,219.914 216.304,196.581 246.5,182.5 Z"/></g>
<g><path style="opacity:1" fill="#9900fe" d="M -0.5,250.5 C 66.5017,316.5 132.502,382.833 197.5,449.5C 181.161,446.387 165.161,442.053 149.5,436.5C 149.5,452.167 149.5,467.833 149.5,483.5C 99.5,433.833 49.5,384.167 -0.5,334.5C -0.5,306.5 -0.5,278.5 -0.5,250.5 Z"/></g>
<g><path style="opacity:1" fill="#9200fe" d="M -0.5,334.5 C 49.5,384.167 99.5,433.833 149.5,483.5C 149.169,490.863 149.503,498.197 150.5,505.5C 160.652,509.13 170.985,512.13 181.5,514.5C 181.369,515.239 181.536,515.906 182,516.5C 218.035,552.368 253.868,588.368 289.5,624.5C 266.833,624.5 244.167,624.5 221.5,624.5C 147.833,550.167 73.8333,476.167 -0.5,402.5C -0.5,379.833 -0.5,357.167 -0.5,334.5 Z"/></g>
<g><path style="opacity:1" fill="#ab00fe" d="M 250.5,348.5 C 279.835,348.333 309.169,348.5 338.5,349C 374.032,351.867 389.865,371.034 386,406.5C 382.358,427.639 370.524,441.972 350.5,449.5C 317.167,415.833 283.833,382.167 250.5,348.5 Z"/></g>
<g><path style="opacity:1" fill="#b100fe" d="M 598.5,532.5 C 598.5,561.833 598.5,591.167 598.5,620.5C 547.167,569.5 495.833,518.5 444.5,467.5C 456.718,447.309 463.052,425.309 463.5,401.5C 464.222,401.082 464.722,400.416 465,399.5C 509.368,444.035 553.868,488.368 598.5,532.5 Z"/></g>
<g><path style="opacity:1" fill="#8c00ff" d="M -0.5,402.5 C 73.8333,476.167 147.833,550.167 221.5,624.5C 196.167,624.5 170.833,624.5 145.5,624.5C 97.1667,575.5 48.5,526.833 -0.5,478.5C -0.5,453.167 -0.5,427.833 -0.5,402.5 Z"/></g>
<g><path style="opacity:1" fill="#ab00fe" d="M 444.5,467.5 C 495.833,518.5 547.167,569.5 598.5,620.5C 598.5,621.833 598.5,623.167 598.5,624.5C 574.167,624.5 549.833,624.5 525.5,624.5C 485.5,584.167 445.5,543.833 405.5,503.5C 421.059,494.274 434.059,482.274 444.5,467.5 Z"/></g>
<g><path style="opacity:1" fill="#8500ff" d="M -0.5,478.5 C 48.5,526.833 97.1667,575.5 145.5,624.5C 96.8333,624.5 48.1667,624.5 -0.5,624.5C -0.5,575.833 -0.5,527.167 -0.5,478.5 Z"/></g>
<g><path style="opacity:1" fill="#a500fe" d="M 405.5,503.5 C 445.5,543.833 485.5,584.167 525.5,624.5C 500.167,624.5 474.833,624.5 449.5,624.5C 416.035,590.535 382.368,556.701 348.5,523C 346.866,522.506 345.199,522.34 343.5,522.5C 364.952,519.018 385.618,512.685 405.5,503.5 Z"/></g>
<g><path style="opacity:1" fill="#9800fe" d="M 181.5,514.5 C 212.464,521.197 243.798,524.863 275.5,525.5C 308.167,558.5 340.833,591.5 373.5,624.5C 345.5,624.5 317.5,624.5 289.5,624.5C 253.868,588.368 218.035,552.368 182,516.5C 181.536,515.906 181.369,515.239 181.5,514.5 Z"/></g>
<g><path style="opacity:1" fill="#9f00fe" d="M 343.5,522.5 C 345.199,522.34 346.866,522.506 348.5,523C 382.368,556.701 416.035,590.535 449.5,624.5C 424.167,624.5 398.833,624.5 373.5,624.5C 340.833,591.5 308.167,558.5 275.5,525.5C 298.262,526.031 320.929,525.031 343.5,522.5 Z"/></g>
</svg>
